img/icons/16/hardware/keyboard.svg

<svg viewBox="0 0 16 16" xmlns="http://www.w3.org/2000/svg"><path d="M2 6C2 5.5286 2 5.29289 2.14645 5.14645C2.29289 5 2.5286 5 3 5C3.4714 5 3.70711 5 3.85355 5.14645C4 5.29289 4 5.5286 4 6C4 6.47141 4 6.70711 3.85355 6.85355C3.70711 7 3.4714 7 3 7C2.5286 7 2.29289 7 2.14645 6.85355C2 6.70711 2 6.47141 2 6Z" fill="#000"/><path d="M5 6C5 5.5286 5 5.29289 5.14645 5.14645C5.29289 5 5.5286 5 6 5C6.4714 5 6.70711 5 6.85355 5.14645C7 5.29289 7 5.5286 7 6C7 6.47141 7 6.70711 6.85355 6.85355C6.70711 7 6.4714 7 6 7C5.5286 7 5.29289 7 5.14645 6.85355C5 6.70711 5 6.47141 5 6Z" fill="#000"/><path d="M2.14645 8.14645C2 8.29289 2 8.5286 2 9C2 9.47141 2 9.70711 2.14645 9.85356C2.29289 10 2.5286 10 3 10H4C4.4714 10 4.70711 10 4.85355 9.85356C5 9.70711 5 9.47141 5 9C5 8.5286 5 8.29289 4.85355 8.14645C4.70711 8 4.4714 8 4 8H3C2.5286 8 2.29289 8 2.14645 8.14645Z" fill="#000"/><path d="M6 9C6 8.5286 6 8.29289 6.14645 8.14645C6.29289 8 6.5286 8 7 8H10C10.4714 8 10.7071 8 10.8536 8.14645C11 8.29289 11 8.5286 11 9C11 9.47141 11 9.70711 10.8536 9.85356C10.7071 10 10.4714 10 10 10H7C6.5286 10 6.29289 10 6.14645 9.85356C6 9.70711 6 9.47141 6 9Z" fill="#000"/><path d="m8.15 5.15c-0.146 0.146-0.146 0.382-0.146 0.854 0 0.471 0 0.707 0.146 0.854 0.146 0.146 0.382 0.146 0.854 0.146s0.707 0 0.854-0.146c0.146-0.146 0.146-0.382 0.146-0.854 0-0.471 0-0.707-0.146-0.854-0.146-0.146-0.382-0.146-0.854-0.146s-0.707 0-0.854 0.146z" fill="#000"/><path d="m11.1 5.15c-0.146 0.146-0.146 0.382-0.146 0.854 0 0.471 0 0.707 0.146 0.854 0.0817 0.0817 0.191 0.118 0.354 0.134 0.247 0.0242 0.37 0.0363 0.435 0.108s0.0648 0.183 0.0648 0.405v1.5c0 0.471 0 0.707 0.146 0.854 0.146 0.146 0.382 0.146 0.854 0.146s0.707 0 0.854-0.146c0.146-0.146 0.146-0.382 0.146-0.854v-3c0-0.471 0-0.707-0.146-0.854-0.146-0.146-0.382-0.146-0.854-0.146h-1c-0.471 0-0.707 0-0.854 0.146z" fill="#000"/><path d="m8 2h-3.2c-1.68 0-2.52 0-3.16 0.327-0.564 0.288-1.02 0.747-1.31 1.31-0.327 0.642-0.327 1.48-0.327 3.16v1.4c0 1.68 0 2.52 0.327 3.16 0.288 0.564 0.747 1.02 1.31 1.31 0.642 0.327 1.48 0.327 3.16 0.327h6.4c1.68 0 2.52 0 3.16-0.327 0.564-0.288 1.02-0.746 1.31-1.31 0.327-0.642 0.327-1.48 0.327-3.16v-1.4c0-1.68 0-2.52-0.327-3.16-0.288-0.564-0.746-1.02-1.31-1.31-0.642-0.327-1.48-0.327-3.16-0.327h-3.2zm5.09 1.04c-0.45-0.0368-1.03-0.0376-1.89-0.0376h-6.4c-0.857 0-1.44 7.8e-4 -1.89 0.0376-0.438 0.0358-0.663 0.101-0.819 0.18-0.376 0.192-0.682 0.498-0.874 0.874-0.0797 0.156-0.145 0.381-0.18 0.819-0.0368 0.45-0.0376 1.03-0.0376 1.89v1.4c0 0.857 7.8e-4 1.44 0.0376 1.89 0.0358 0.438 0.101 0.663 0.18 0.819 0.192 0.376 0.498 0.682 0.874 0.874 0.156 0.0797 0.381 0.145 0.819 0.18 0.45 0.0367 1.03 0.0375 1.89 0.0375h6.4c0.857 0 1.44-8e-4 1.89-0.0375 0.438-0.0359 0.663-0.101 0.819-0.18 0.376-0.192 0.682-0.498 0.874-0.874 0.0797-0.156 0.145-0.381 0.18-0.819 0.0368-0.45 0.0376-1.03 0.0376-1.89v-1.4c0-0.857-8e-4 -1.44-0.0376-1.89-0.0358-0.438-0.101-0.663-0.18-0.819-0.192-0.376-0.498-0.682-0.874-0.874-0.156-0.0797-0.381-0.145-0.819-0.18z" clip-rule="evenodd" fill="#000" fill-rule="evenodd"/></svg>

<svg viewBox="0 0 16 16" xmlns="http://www.w3.org/2000/svg"><path d="m2 6c0-0.471 0-0.707 0.146-0.854 0.146-0.146 0.382-0.146 0.854-0.146s0.707 0 0.854 0.146c0.146 0.146 0.146 0.382 0.146 0.854 0 0.471 0 0.707-0.146 0.854-0.146 0.146-0.382 0.146-0.854 0.146s-0.707 0-0.854-0.146c-0.146-0.146-0.146-0.382-0.146-0.854z" fill="#000"/><path d="m5 6c0-0.471 0-0.707 0.146-0.854 0.146-0.146 0.382-0.146 0.854-0.146s0.707 0 0.854 0.146c0.146 0.146 0.146 0.382 0.146 0.854 0 0.471 0 0.707-0.146 0.854-0.146 0.146-0.382 0.146-0.854 0.146s-0.707 0-0.854-0.146c-0.146-0.146-0.146-0.382-0.146-0.854z" fill="#000"/><path d="m2.15 8.15c-0.146 0.146-0.146 0.382-0.146 0.854 0 0.471 0 0.707 0.146 0.854 0.146 0.146 0.382 0.146 0.854 0.146h1c0.471 0 0.707 0 0.854-0.146 0.146-0.146 0.146-0.382 0.146-0.854 0-0.471 0-0.707-0.146-0.854-0.146-0.146-0.382-0.146-0.854-0.146h-1c-0.471 0-0.707 0-0.854 0.146z" fill="#000"/><path d="m6 9c0-0.471 0-0.707 0.146-0.854 0.146-0.146 0.382-0.146 0.854-0.146h3c0.471 0 0.707 0 0.854 0.146 0.146 0.146 0.146 0.382 0.146 0.854 0 0.471 0 0.707-0.146 0.854-0.146 0.146-0.382 0.146-0.854 0.146h-3c-0.471 0-0.707 0-0.854-0.146-0.146-0.146-0.146-0.382-0.146-0.854z" fill="#000"/><path d="m8.15 5.15c-0.146 0.146-0.146 0.382-0.146 0.854 0 0.471 0 0.707 0.146 0.854 0.146 0.146 0.382 0.146 0.854 0.146s0.707 0 0.854-0.146c0.146-0.146 0.146-0.382 0.146-0.854 0-0.471 0-0.707-0.146-0.854-0.146-0.146-0.382-0.146-0.854-0.146s-0.707 0-0.854 0.146z" fill="#000"/><path d="m11.1 5.15c-0.146 0.146-0.146 0.382-0.146 0.854 0 0.471 0 0.707 0.146 0.854 0.0817 0.0817 0.191 0.118 0.354 0.134 0.247 0.0242 0.37 0.0363 0.435 0.108s0.0648 0.183 0.0648 0.405v1.5c0 0.471 0 0.707 0.146 0.854 0.146 0.146 0.382 0.146 0.854 0.146s0.707 0 0.854-0.146c0.146-0.146 0.146-0.382 0.146-0.854v-3c0-0.471 0-0.707-0.146-0.854-0.146-0.146-0.382-0.146-0.854-0.146h-1c-0.471 0-0.707 0-0.854 0.146z" fill="#000"/><path d="m8 2h-3.2c-1.68 0-2.52 0-3.16 0.327-0.564 0.288-1.02 0.747-1.31 1.31-0.327 0.642-0.327 1.48-0.327 3.16v1.4c0 1.68 0 2.52 0.327 3.16 0.288 0.564 0.747 1.02 1.31 1.31 0.642 0.327 1.48 0.327 3.16 0.327h6.4c1.68 0 2.52 0 3.16-0.327 0.564-0.288 1.02-0.746 1.31-1.31 0.327-0.642 0.327-1.48 0.327-3.16v-1.4c0-1.68 0-2.52-0.327-3.16-0.288-0.564-0.746-1.02-1.31-1.31-0.642-0.327-1.48-0.327-3.16-0.327h-2.2c-0.5 0-0.5-1e-5 -1 0zm5.09 1.04c-0.45-0.0368-1.03-0.0376-1.89-0.0376h-6.4c-0.857 0-1.44 7.7e-4 -1.89 0.0376-0.438 0.0358-0.663 0.101-0.819 0.18-0.376 0.192-0.682 0.498-0.874 0.874-0.0797 0.156-0.145 0.381-0.18 0.819-0.0368 0.45-0.0376 1.03-0.0376 1.89v1.4c0 0.857 7.8e-4 1.44 0.0376 1.89 0.0358 0.438 0.101 0.663 0.18 0.819 0.192 0.376 0.498 0.682 0.874 0.874 0.156 0.0797 0.381 0.145 0.819 0.18 0.45 0.0367 1.03 0.0375 1.89 0.0375h6.4c0.857 0 1.44-8e-4 1.89-0.0375 0.438-0.0359 0.663-0.101 0.819-0.18 0.376-0.192 0.682-0.498 0.874-0.874 0.0797-0.156 0.145-0.381 0.18-0.819 0.0368-0.45 0.0376-1.03 0.0376-1.89v-1.4c0-0.857-8e-4 -1.44-0.0376-1.89-0.0358-0.438-0.101-0.663-0.18-0.819-0.192-0.376-0.498-0.682-0.874-0.874-0.156-0.0797-0.381-0.145-0.819-0.18z" clip-rule="evenodd" fill="#000" fill-rule="evenodd"/></svg>
